X:1
T:Title
%%score { 1 | 2 }
L:1/8
M:3/4
K:Ab
V:1 treble nm="Grand Piano"
V:2 bass 
V:1
 z2 z2 z[Q:1/4=100] [CE] | [CE]>[CE] [CEA]3 [Ec] | [Ec]>[DB] [CA]3 [CE] | %3
 [A,DF]>[A,DF] [A,CE]3 [CEA] |[M:5/8] G>A B3 |[M:1/8] E |[M:3/4] [CE]>[CE] [CA]3 [Ec] | %7
 c>B A3 [EA] | [FB]>[Fc] [Fd]3 F |[M:5/8] G>E [CA]3 |[M:1/8] c |[M:3/4] e>e e3 c | c>B [CA]3 A | %13
 d>d d3 c |[M:5/8] c>B B3 |[M:1/8] c |[M:3/4] e>e e3 c | c>B A3 E | F>F E3 A |[M:5/8] G>B [CEA]3 |] %20
V:2
 z2 z2 z [A,,A,] | [A,,A,]>[A,,A,] A,,3 [A,,A,] | [E,A,]>[E,G,] [A,,A,]3 [A,,A,] | D,>D, A,,3 A,, | %4
[M:5/8] [E,B,E]>[E,CE] [E,DE]3 |[M:1/8] [E,G,D] |[M:3/4] [A,,A,]>[A,,A,] [A,,E,]3 [A,,A,] | %7
 [E,A,E]>[E,G,D] [F,A,C]3 [C,A,] | [D,A,]>[D,A,] [D,A,]3 [D,B,D] | %9
[M:5/8] [E,B,D]>[E,G,D] [A,,A,]3 |[M:1/8][K:treble] [A,E] |[M:3/4] [A,CA]>[A,CA] [A,CA]3 [A,E] | %12
 [E,A,E]>[E,G,D] [A,,A,]3 [A,CE] | [G,B,E]>[G,B,E] [G,B,E]3 [A,E] | %14
[M:5/8] [E,A,E]>[E,G,E] [E,G,E]3 |[M:1/8][K:treble] [A,E] |[M:3/4] [A,CA]>[A,CA] [A,CA]3 [A,E] | %17
 [E,A,E]>[E,G,D] [F,A,C]3 [C,A,] | [D,A,D]>[D,A,D] [E,A,C]3 [E,CE] |[M:5/8] [E,B,E]>[E,DE] A,,3 |] %20

